modules/framework7-icons/icons/phone_round.svg

<?xml version="1.0" encoding="UTF-8"?>
<svg width="50px" height="50px" viewBox="0 0 50 50" version="1.1" xmlns="http://www.w3.org/2000/svg" xmlns:xlink="http://www.w3.org/1999/xlink">
    <!-- Generator: Sketch 40.1 (33804) - http://www.bohemiancoding.com/sketch -->
    <title>phone_round</title>
    <desc>Created with Sketch.</desc>
    <defs></defs>
    <g id="Page-1" stroke="none" stroke-width="1" fill="none" fill-rule="evenodd">
        <g id="phone_round" fill="#000000">
            <path d="M19.1910675,18.0772379 C19.3220122,17.9041458 19.3249231,17.4358547 19.1930073,17.2563503 L16.1551949,13.1226462 C16.1858711,13.1643888 16.3128585,13.1789208 16.3515914,13.1458344 L14.4955454,14.731306 C14.19751,14.9858937 13.9388753,15.7175005 14.0098505,16.0861032 L14.0356022,16.2198425 L14.0429856,16.3558382 C14.0425012,16.3469169 14.0457005,16.3807467 14.0559221,16.4556008 C14.0775499,16.6139836 14.1128881,16.8099156 14.1652995,17.0417167 C14.3247288,17.7468281 14.5929515,18.5747842 14.9974341,19.5125583 C16.1938997,22.286508 18.2687929,25.3345432 21.4518929,28.5487221 C24.5972716,31.7248114 27.794119,33.7434305 30.8717399,34.8543328 C31.9239051,35.2341238 32.8789885,35.4754845 33.7144663,35.6074616 C34.1831694,35.6815007 34.4861765,35.704028 34.5997784,35.704028 L33.9301517,35.8194591 C34.125427,35.7500737 34.5211991,35.549242 34.9054125,35.2373814 C35.208828,34.9911031 35.43563,34.7233385 35.571246,34.4453125 C35.5910413,34.4047302 35.6792052,34.1964936 35.7886089,33.9284986 C35.9092265,33.6325151 36.0154021,33.3667881 36.0891025,33.180592 C36.1372615,33.060964 36.0537981,32.8102435 35.9490376,32.7468753 L31.8403659,30.2615996 C31.5915771,30.1111109 30.9880242,30.1400092 30.7508289,30.3156478 L30.6736593,30.3727905 C28.9810158,31.6261612 26.5248738,31.4350364 25.0534197,29.9357579 L19.9801267,24.7665316 C18.1303101,22.8817359 17.9313958,19.742362 19.5276614,17.632304 L21.0665211,18.7964563 C20.9917096,18.9713919 20.8982073,19.1356413 20.7860749,19.283866 L21.1226688,18.8389322 C21.0092155,18.9889028 20.9103218,19.1480011 20.8258315,19.313942 L19.1910675,18.0772379 Z M19.5276614,17.632304 L19.1910675,18.0772379 L20.7860749,19.283866 C20.1659421,20.6099791 20.3846538,22.3234138 21.4075234,23.3656252 L26.4808164,28.5348515 C27.2511551,29.319757 28.5901354,29.4269767 29.4834735,28.7654766 L29.5606432,28.7083339 C30.4486262,28.0507992 31.931195,27.9791179 32.8754981,28.5503132 L36.9841698,31.0355889 C37.9269307,31.6058512 38.3592266,32.8970616 37.9444051,33.9274869 C37.9444051,33.9274869 37.4951178,35.0631609 37.3687993,35.3221262 C36.5439051,37.0132392 34.5997784,37.704028 34.5997784,37.704028 C34.5997784,37.704028 27.7038874,37.704028 20.0308256,29.9560486 C12.3577638,22.2080691 12.0459266,16.4642606 12.0459266,16.4642606 C11.8385516,15.3872783 12.3529076,13.931235 13.1965268,13.2105986 L15.0525728,11.6251271 C15.8954068,10.9051615 17.1076444,11.0413314 17.7668087,11.9382894 L20.8046211,16.0719935 C21.3500649,16.8142063 21.4349571,17.9349235 21.0665211,18.7964563 L19.5276614,17.632304 Z" id="Rectangle-57"></path>
            <path d="M48,25 C48,12.2974508 37.7025492,2 25,2 C12.2974508,2 2,12.2974508 2,25 C2,37.7025492 12.2974508,48 25,48 C37.7025492,48 48,37.7025492 48,25 Z M0,25 C0,11.1928813 11.1928813,0 25,0 C38.8071187,0 50,11.1928813 50,25 C50,38.8071187 38.8071187,50 25,50 C11.1928813,50 0,38.8071187 0,25 Z" id="Oval-19"></path>
        </g>
    </g>
</svg>

<svg width="50" height="50" viewBox="0 0 50 50" xmlns="http://www.w3.org/2000/svg"><g fill="#000" fill-rule="evenodd"><path d="M19.191 18.077c.131-.173.134-.641.002-.82l-3.038-4.134c.03.041.158.056.197.023l-1.856 1.585c-.298.255-.557.987-.486 1.355l.026.134.007.136c0-.01.003.025.013.1.022.158.057.354.11.586.159.705.427 1.533.831 2.47 1.197 2.775 3.272 5.823 6.455 9.037 3.145 3.176 6.342 5.194 9.42 6.305 1.052.38 2.007.621 2.842.753.47.075.772.097.886.097l-.67.115c.195-.069.591-.27.975-.582.304-.246.53-.514.666-.792.02-.04.108-.249.218-.517.12-.295.226-.561.3-.747.048-.12-.035-.37-.14-.434l-4.109-2.485c-.248-.15-.852-.122-1.09.054l-.076.057c-1.693 1.253-4.15 1.062-5.62-.437l-5.074-5.17c-1.85-1.884-2.049-5.024-.452-7.134l1.539 1.164c-.075.175-.169.34-.28.488l.336-.445c-.114.15-.213.309-.297.475l-1.635-1.237zm.337-.445l-.337.445 1.595 1.207c-.62 1.326-.401 3.04.622 4.082l5.073 5.169c.77.785 2.11.892 3.002.23l.078-.057c.888-.657 2.37-.729 3.314-.158l4.11 2.486c.942.57 1.374 1.861.96 2.891 0 0-.45 1.136-.576 1.395-.825 1.691-2.77 2.382-2.77 2.382s-6.895 0-14.568-7.748-7.985-13.492-7.985-13.492c-.207-1.077.307-2.533 1.15-3.253l1.857-1.586a1.834 1.834 0 0 1 2.714.313l3.038 4.134c.545.742.63 1.863.262 2.724l-1.54-1.164z"/><path d="M48 25C48 12.297 37.703 2 25 2S2 12.297 2 25s10.297 23 23 23 23-10.297 23-23zM0 25C0 11.193 11.193 0 25 0s25 11.193 25 25-11.193 25-25 25S0 38.807 0 25z"/></g></svg>
